src/Assets/Icons/ReportsScreen/DownloadReportsComponent/pdf.svg

<svg width="45" height="60" viewBox="0 0 45 60" fill="none" xmlns="http://www.w3.org/2000/svg">
<g clip-path="url(#clip0_400_5543)">
<path d="M7.50038 0C5.51115 0 3.6034 0.790236 2.19681 2.19687C0.790214 3.6035 0 5.5113 0 7.50057V52.4994C0 54.4887 0.790214 56.3965 2.19681 57.8031C3.6034 59.2098 5.51115 60 7.50038 60H37.4996C39.4888 60 41.3966 59.2098 42.8032 57.8031C44.2098 56.3965 45 54.4887 45 52.4994V7.50057C45 5.5113 44.2098 3.6035 42.8032 2.19687C41.3966 0.790236 39.4888 0 37.4996 0L7.50038 0ZM7.50038 3.75029H37.4996C38.4942 3.75029 39.4481 4.1454 40.1514 4.84872C40.8547 5.55203 41.2498 6.50593 41.2498 7.50057V52.4994C41.2498 53.4941 40.8547 54.448 40.1514 55.1513C39.4481 55.8546 38.4942 56.2497 37.4996 56.2497H7.50038C6.50577 56.2497 5.55189 55.8546 4.8486 55.1513C4.1453 54.448 3.75019 53.4941 3.75019 52.4994V7.50057C3.75019 6.50593 4.1453 5.55203 4.8486 4.84872C5.55189 4.1454 6.50577 3.75029 7.50038 3.75029Z" fill="#0000FF"/>
<path d="M9.7598 45.3274C9.02859 45.0352 8.43938 44.4705 8.11637 43.7524C7.78675 43.1014 7.64044 42.373 7.69311 41.6452C7.74578 40.9174 7.99546 40.2177 8.41539 39.6209C9.29902 38.3951 10.4494 37.386 11.7798 36.6695C13.5422 35.6697 15.4052 34.8587 17.3378 34.25C18.8383 31.5549 20.1686 28.7685 21.3208 25.9072C20.6325 24.3422 20.093 22.7159 19.7093 21.0498C19.3586 19.6572 19.2995 18.2071 19.5358 16.7905C19.6467 16.1114 19.9287 15.4718 20.3552 14.9319C20.7817 14.3919 21.3387 13.9695 21.9736 13.7045C22.6807 13.3862 23.4664 13.2854 24.231 13.4146C24.6123 13.4957 24.9707 13.6607 25.2802 13.8975C25.5897 14.1344 25.8426 14.4373 26.0205 14.7841C26.329 15.4124 26.4921 16.102 26.4976 16.8019C26.513 17.5735 26.4541 18.3448 26.3218 19.1051C25.8866 21.404 25.2339 23.6564 24.3725 25.8318C25.4071 28.0445 26.6369 30.1604 28.0474 32.1546C29.7168 32.0226 31.3958 32.0854 33.0507 32.3418C34.4151 32.4929 35.686 33.1086 36.6502 34.0857C37.1118 34.6303 37.3764 35.3146 37.4012 36.0281C37.4094 36.7644 37.2312 37.4907 36.8831 38.1395C36.587 38.7682 36.1284 39.3065 35.5546 39.6985C34.9877 40.0687 34.3181 40.2501 33.6419 40.2167C32.3424 40.068 31.1204 39.522 30.1428 38.6531C28.868 37.6014 27.7191 36.4057 26.719 35.09C24.1829 35.3776 21.677 35.887 19.23 36.6125C18.1085 38.6001 16.8284 40.4939 15.4022 42.2756C14.485 43.5111 13.2975 44.5206 11.9305 45.2269C11.2456 45.5337 10.47 45.5696 9.7598 45.3274ZM14.932 38.1989C14.3434 38.4666 13.7689 38.7645 13.211 39.0914C12.2617 39.5904 11.4334 40.2917 10.7846 41.1457C10.6285 41.3311 10.5309 41.5587 10.504 41.7996C10.4772 42.0406 10.5225 42.284 10.634 42.4993C10.6604 42.5576 10.6934 42.6127 10.7321 42.6636C10.7773 42.6515 10.8215 42.6362 10.8645 42.618C11.8011 42.0795 12.6126 41.3481 13.2452 40.4723C13.8417 39.7404 14.404 38.9826 14.932 38.1989ZM21.0811 33.2114C22.3335 32.9193 23.5957 32.6781 24.8678 32.4878C24.1846 31.4424 23.547 30.3696 22.9551 29.2694C22.3677 30.5994 21.7431 31.9119 21.0811 33.2069V33.2114ZM30.2546 34.8983C30.7587 35.4518 31.3043 35.9661 31.8866 36.4367C32.4042 36.9291 33.0522 37.2627 33.7537 37.3977C33.8452 37.4093 33.9378 37.3892 34.0162 37.3406C34.1733 37.2153 34.2946 37.0508 34.3677 36.8636C34.5037 36.6355 34.582 36.3777 34.596 36.1126C34.5917 36.0272 34.5569 35.9462 34.4978 35.8843C33.948 35.4269 33.2687 35.1531 32.5554 35.1014C31.7972 34.9747 31.0301 34.9083 30.2614 34.9028L30.2546 34.8983ZM22.7907 21.7506C23.1066 20.7328 23.3575 19.6959 23.5417 18.6463C23.6465 18.0711 23.6939 17.4869 23.6832 16.9024C23.6839 16.6501 23.643 16.3995 23.5622 16.1605C23.3743 16.1869 23.1913 16.2408 23.019 16.3203C22.6926 16.4504 22.4255 16.7175 22.284 17.3817C22.1367 18.4102 22.1957 19.4577 22.4575 20.4632C22.5465 20.8786 22.6606 21.3146 22.7953 21.7597L22.7907 21.7506Z" fill="#0000FF"/>
</g>
<defs>
<clipPath id="clip0_400_5543">
<rect width="45" height="60" fill="white"/>
</clipPath>
</defs>
</svg>

<svg xmlns="http://www.w3.org/2000/svg" width="45" height="60" fill="none"><g fill="#00F" clip-path="url(#a)"><path d="M7.5 0A7.5 7.5 0 0 0 0 7.5v45A7.5 7.5 0 0 0 7.5 60h30a7.5 7.5 0 0 0 7.5-7.5v-45A7.5 7.5 0 0 0 37.5 0zm0 3.75h30a3.75 3.75 0 0 1 3.75 3.75v45a3.75 3.75 0 0 1-3.75 3.75h-30a3.75 3.75 0 0 1-3.75-3.75v-45A3.75 3.75 0 0 1 7.5 3.75"/><path d="M9.76 45.327a3.04 3.04 0 0 1-1.644-1.575 4.02 4.02 0 0 1 .3-4.131 10 10 0 0 1 3.364-2.952c1.762-1 3.625-1.81 5.558-2.419a74 74 0 0 0 3.983-8.343 27.3 27.3 0 0 1-1.612-4.857 10.4 10.4 0 0 1-.173-4.26 4.05 4.05 0 0 1 2.438-3.085 3.9 3.9 0 0 1 2.257-.29 2.63 2.63 0 0 1 1.79 1.37c.308.627.471 1.317.477 2.017.015.771-.044 1.543-.176 2.303a37 37 0 0 1-1.95 6.727 41 41 0 0 0 3.675 6.323c1.67-.132 3.349-.07 5.004.187a5.98 5.98 0 0 1 3.6 1.744c.46.544.725 1.229.75 1.942a4.36 4.36 0 0 1-.518 2.111 3.9 3.9 0 0 1-1.328 1.56 3.2 3.2 0 0 1-1.913.518 6.36 6.36 0 0 1-3.5-1.564 21.4 21.4 0 0 1-3.423-3.563 43.7 43.7 0 0 0-7.489 1.522 42.4 42.4 0 0 1-3.828 5.664 10.1 10.1 0 0 1-3.471 2.95 2.97 2.97 0 0 1-2.171.101m5.172-7.128q-.884.402-1.721.892a7.3 7.3 0 0 0-2.426 2.055 1.23 1.23 0 0 0-.151 1.353q.04.088.098.165a1 1 0 0 0 .133-.046 7.6 7.6 0 0 0 2.38-2.146 31 31 0 0 0 1.687-2.273m6.15-4.988a48 48 0 0 1 3.786-.723 44 44 0 0 1-1.913-3.219 77 77 0 0 1-1.874 3.938zm9.173 1.687q.758.832 1.632 1.539a3.73 3.73 0 0 0 1.867.96.4.4 0 0 0 .262-.056c.157-.126.279-.29.352-.477.136-.228.214-.486.228-.751a.36.36 0 0 0-.098-.229 3.42 3.42 0 0 0-1.943-.783 14.6 14.6 0 0 0-2.294-.198zM22.79 21.751q.475-1.529.75-3.105c.105-.575.153-1.16.142-1.744 0-.252-.04-.503-.12-.742q-.285.04-.544.16c-.326.13-.593.398-.735 1.062a7.8 7.8 0 0 0 .174 3.081c.089.416.203.852.337 1.297z"/></g><defs><clipPath id="a"><path fill="#fff" d="M0 0h45v60H0z"/></clipPath></defs></svg>
